anadea-new/source/img/expertise-5.svg

<svg width="52" height="52" viewBox="0 0 52 52" fill="none" xmlns="http://www.w3.org/2000/svg">
<path opacity="0.35" fill-rule="evenodd" clip-rule="evenodd" d="M25.8126 51.6252C40.0685 51.6252 51.6252 40.0685 51.6252 25.8126C51.6252 11.5567 40.0685 0 25.8126 0C11.5567 0 0 11.5567 0 25.8126C0 40.0685 11.5567 51.6252 25.8126 51.6252Z" fill="url(#paint0_linear)"/>
<path opacity="0.5" fill-rule="evenodd" clip-rule="evenodd" d="M35.5574 18.5019C35.5585 18.4766 35.559 18.4512 35.559 18.4258C35.559 16.1885 31.1806 14.3748 25.7795 14.3748C20.3784 14.3748 16 16.1885 16 18.4258C16 18.4512 16.0006 18.4766 16.0017 18.5019H16V34.3237V34.3998H16.0017C16.0996 36.602 20.4398 38.3748 25.7795 38.3748C31.1192 38.3748 35.4594 36.602 35.5574 34.3998H36V18.5019H35.5574Z" fill="#F2D874"/>
<path opacity="0.8" fill-rule="evenodd" clip-rule="evenodd" d="M26 22.3748C31.5228 22.3748 36 20.5839 36 18.3748C36 16.1656 31.5228 14.3748 26 14.3748C20.4772 14.3748 16 16.1656 16 18.3748C16 20.5839 20.4772 22.3748 26 22.3748Z" fill="#F2D874"/>
<path opacity="0.2" fill-rule="evenodd" clip-rule="evenodd" d="M26 37.3748C31.5228 37.3748 36 35.5839 36 33.3748C36 31.1656 31.5228 29.3748 26 29.3748C20.4772 29.3748 16 31.1656 16 33.3748C16 35.5839 20.4772 37.3748 26 37.3748Z" fill="#F2D874"/>
<defs>
<linearGradient id="paint0_linear" x1="0" y1="0" x2="0" y2="51.6252" gradientUnits="userSpaceOnUse">
<stop stop-color="#F2D874"/>
<stop offset="1" stop-color="#EC993C" stop-opacity="0.695199"/>
</linearGradient>
</defs>
</svg>

<?xml version="1.0" encoding="UTF-8"?>
<svg fill="none" viewBox="0 0 52 52" xmlns="http://www.w3.org/2000/svg">
<path d="m25.813 51.625c14.256 0 25.812-11.556 25.812-25.812s-11.555-25.813-25.812-25.813c-14.256 0-25.813 11.557-25.813 25.813s11.557 25.812 25.813 25.812z" clip-rule="evenodd" fill="url(#a)" fill-rule="evenodd" opacity=".35"/>
<path d="M35.557 18.502c.002-.025.002-.05.002-.076 0-2.237-4.378-4.051-9.78-4.051-5.4 0-9.779 1.814-9.779 4.05 0 .026 0 .052.002.077H16V34.4h.002c.098 2.202 4.438 3.975 9.777 3.975 5.34 0 9.68-1.773 9.778-3.975H36V18.502h-.443z" clip-rule="evenodd" fill="#F2D874" fill-rule="evenodd" opacity=".5"/>
<path d="m26 22.375c5.523 0 10-1.791 10-4 0-2.21-4.477-4-10-4s-10 1.79-10 4c0 2.209 4.477 4 10 4z" clip-rule="evenodd" fill="#F2D874" fill-rule="evenodd" opacity=".8"/>
<path d="m26 37.375c5.523 0 10-1.791 10-4 0-2.21-4.477-4-10-4s-10 1.79-10 4c0 2.209 4.477 4 10 4z" clip-rule="evenodd" fill="#F2D874" fill-rule="evenodd" opacity=".2"/>
<defs>
<linearGradient id="a" x2="0" y2="51.625" gradientUnits="userSpaceOnUse">
<stop stop-color="#F2D874" offset="0"/>
<stop stop-color="#EC993C" stop-opacity=".695" offset="1"/>
</linearGradient>
</defs>
</svg>
